build/img/sprite/ok.svg

<svg width="40" height="40" viewBox="0 0 40 40" fill="currentColor" xmlns="http://www.w3.org/2000/svg">
<path d="M20.1711 17.6428C21.3282 17.6428 22.2282 16.6785 22.2068 15.6285C22.2282 14.5785 21.3496 13.5928 20.1925 13.5928C19.0782 13.5928 18.1568 14.4928 18.1568 15.6071C18.1568 16.7213 19.0568 17.6428 20.1711 17.6428Z" fill="#currentColor"/>
<path d="M20 5C11.7286 5 5 11.7286 5 20C5 28.2929 11.7286 35 20 35C28.2928 35 34.9999 28.2714 34.9999 20C35.0214 11.7286 28.2928 5 20 5ZM20.2143 10.6786C22.9143 10.6786 25.1428 12.9071 25.1214 15.6286C25.1214 18.3714 22.8714 20.5786 20.1285 20.5357C17.4285 20.4929 15.2643 18.2857 15.2643 15.6071C15.2643 12.8857 17.4714 10.6786 20.2143 10.6786ZM25.7214 22.25C25.7214 22.2929 25.7 22.3143 25.7 22.3571C25.6357 22.7857 25.4214 23.1286 25.0571 23.3643C24.8214 23.5143 24.5643 23.6643 24.3071 23.7929C23.6643 24.1143 22.9785 24.3714 22.2714 24.5429C22.1857 24.5643 22.1857 24.5643 22.25 24.6286C22.6357 25.0143 23.0428 25.4214 23.4285 25.8071C23.9214 26.3 24.4357 26.8143 24.9285 27.3071C25.6357 28.0143 25.4428 29.1929 24.5428 29.6214C24.3928 29.7071 24.2214 29.7286 24.05 29.7714C23.9643 29.7714 23.8571 29.7714 23.7714 29.7714C23.75 29.7714 23.7285 29.7714 23.7285 29.75C23.3857 29.7071 23.1071 29.5357 22.85 29.3C21.9928 28.4429 21.1143 27.5643 20.2571 26.7071C20.1928 26.6429 20.1928 26.6429 20.1285 26.7071C19.25 27.5857 18.3928 28.4429 17.5143 29.3214C17.3643 29.4714 17.2143 29.5786 17.0214 29.6643C16.8928 29.7286 16.7428 29.75 16.6143 29.7714C16.5286 29.7714 16.4428 29.7714 16.3357 29.7714C16.2928 29.7714 16.2714 29.75 16.2286 29.75C15.65 29.6429 15.2643 29.3214 15.0928 28.7643C14.9214 28.2071 15.05 27.7143 15.4571 27.3071C15.8214 26.9429 16.1643 26.6 16.5286 26.2357C17.0643 25.7 17.6 25.1643 18.1143 24.65C18.1785 24.5857 18.1785 24.5857 18.0928 24.5643C18.0714 24.5643 18.0285 24.5429 18.0071 24.5429C17.0428 24.3071 16.1643 23.9214 15.3286 23.4071C14.8357 23.0857 14.6 22.6143 14.6643 22.0357C14.7714 20.9643 15.9714 20.3857 16.8714 20.9643C17.0428 21.0714 17.1928 21.1571 17.3857 21.2429C18.3714 21.7357 19.4214 21.95 20.5143 21.8857C21.05 21.8643 21.5857 21.7571 22.1214 21.5857C22.6357 21.4143 23.0857 21.1786 23.5571 20.9214C24.3285 20.4714 25.3357 20.8357 25.6357 21.6714C25.6785 21.8 25.7 21.9071 25.7214 22.0357C25.7214 22.1 25.7214 22.1643 25.7214 22.25Z" fill="currentColor"/>
</svg>

<svg width="40" height="40" fill="currentColor" xmlns="http://www.w3.org/2000/svg"><path d="M20.171 17.643c1.157 0 2.057-.965 2.036-2.014.021-1.05-.857-2.036-2.015-2.036-1.114 0-2.035.9-2.035 2.014 0 1.114.9 2.036 2.014 2.036Z" fill="#currentColor"/><path d="M20 5C11.729 5 5 11.729 5 20c0 8.293 6.729 15 15 15 8.293 0 15-6.729 15-15 .021-8.271-6.707-15-15-15Zm.214 5.679c2.7 0 4.929 2.228 4.907 4.95 0 2.742-2.25 4.95-4.992 4.907-2.7-.043-4.865-2.25-4.865-4.929a4.934 4.934 0 0 1 4.95-4.928Zm5.507 11.571c0 .043-.021.064-.021.107a1.401 1.401 0 0 1-.643 1.007c-.236.15-.493.3-.75.429a9.662 9.662 0 0 1-2.036.75c-.085.021-.085.021-.021.086l1.178 1.178 1.5 1.5a1.43 1.43 0 0 1-.385 2.314c-.15.086-.322.108-.493.15h-.279c-.021 0-.043 0-.043-.021-.342-.043-.62-.214-.878-.45l-2.593-2.593c-.064-.064-.064-.064-.129 0l-2.614 2.614c-.15.15-.3.258-.493.343-.128.065-.278.086-.407.107h-.278c-.043 0-.065-.021-.107-.021-.579-.107-.965-.429-1.136-.986-.172-.557-.043-1.05.364-1.457l1.072-1.071 1.585-1.586c.064-.064.064-.064-.021-.086-.022 0-.064-.021-.086-.021a9.26 9.26 0 0 1-2.678-1.136c-.493-.321-.729-.793-.665-1.371.107-1.072 1.307-1.65 2.207-1.072.172.107.322.193.515.279a6.1 6.1 0 0 0 3.128.643 6.069 6.069 0 0 0 1.607-.3c.515-.172.965-.407 1.436-.665a1.445 1.445 0 0 1 2.079.75c.043.129.064.236.085.365v.214Z"/></svg>
